img/dec/dec-bottom.svg

<svg width="59" height="88" viewBox="0 0 59 88" fill="none" xmlns="http://www.w3.org/2000/svg">
<path d="M-27.7692 23.6923C-27.7692 21.823 -29.3879 20.3077 -31.3846 20.3077C-33.3813 20.3077 -35 21.823 -35 23.6923C-35 25.5616 -33.3813 27.0769 -31.3846 27.0769C-29.3879 27.0769 -27.7692 25.5616 -27.7692 23.6923Z" fill="#0F2D95"/>
<path d="M-27.7692 3.38461C-27.7692 1.51534 -29.3879 0 -31.3846 0C-33.3813 0 -35 1.51534 -35 3.38461C-35 5.25388 -33.3813 6.76923 -31.3846 6.76923C-29.3879 6.76923 -27.7692 5.25388 -27.7692 3.38461Z" fill="#0F2D95"/>
<path d="M-6.07692 64.3077C-6.07692 62.4384 -7.69559 60.9231 -9.69231 60.9231C-11.689 60.9231 -13.3077 62.4384 -13.3077 64.3077C-13.3077 66.177 -11.689 67.6923 -9.69231 67.6923C-7.69559 67.6923 -6.07692 66.177 -6.07692 64.3077Z" fill="#0F2D95"/>
<path d="M-6.07692 44C-6.07692 42.1307 -7.69559 40.6154 -9.69231 40.6154C-11.689 40.6154 -13.3077 42.1307 -13.3077 44C-13.3077 45.8693 -11.689 47.3846 -9.69231 47.3846C-7.69559 47.3846 -6.07692 45.8693 -6.07692 44Z" fill="#0F2D95"/>
<path d="M-6.07692 23.6923C-6.07692 21.823 -7.69559 20.3077 -9.69231 20.3077C-11.689 20.3077 -13.3077 21.823 -13.3077 23.6923C-13.3077 25.5616 -11.689 27.0769 -9.69231 27.0769C-7.69559 27.0769 -6.07692 25.5616 -6.07692 23.6923Z" fill="#0F2D95"/>
<path d="M-6.07692 3.38461C-6.07692 1.51534 -7.69559 0 -9.69231 0C-11.689 0 -13.3077 1.51534 -13.3077 3.38461C-13.3077 5.25388 -11.689 6.76923 -9.69231 6.76923C-7.69559 6.76923 -6.07692 5.25388 -6.07692 3.38461Z" fill="#0F2D95"/>
<path d="M15.6154 64.3077C15.6154 62.4384 13.9967 60.9231 12 60.9231C10.0033 60.9231 8.38461 62.4384 8.38461 64.3077C8.38461 66.177 10.0033 67.6923 12 67.6923C13.9967 67.6923 15.6154 66.177 15.6154 64.3077Z" fill="#0F2D95"/>
<path d="M15.6154 44C15.6154 42.1307 13.9967 40.6154 12 40.6154C10.0033 40.6154 8.38461 42.1307 8.38461 44C8.38461 45.8693 10.0033 47.3846 12 47.3846C13.9967 47.3846 15.6154 45.8693 15.6154 44Z" fill="#0F2D95"/>
<path d="M15.6154 23.6923C15.6154 21.823 13.9967 20.3077 12 20.3077C10.0033 20.3077 8.38461 21.823 8.38461 23.6923C8.38461 25.5616 10.0033 27.0769 12 27.0769C13.9967 27.0769 15.6154 25.5616 15.6154 23.6923Z" fill="#0F2D95"/>
<path d="M15.6154 3.38461C15.6154 1.51534 13.9967 0 12 0C10.0033 0 8.38461 1.51534 8.38461 3.38461C8.38461 5.25388 10.0033 6.76923 12 6.76923C13.9967 6.76923 15.6154 5.25388 15.6154 3.38461Z" fill="#0F2D95"/>
<path d="M37.3077 84.6154C37.3077 82.7461 35.689 81.2308 33.6923 81.2308C31.6956 81.2308 30.0769 82.7461 30.0769 84.6154C30.0769 86.4847 31.6956 88 33.6923 88C35.689 88 37.3077 86.4847 37.3077 84.6154Z" fill="#0F2D95"/>
<path d="M37.3077 64.3077C37.3077 62.4384 35.689 60.9231 33.6923 60.9231C31.6956 60.9231 30.0769 62.4384 30.0769 64.3077C30.0769 66.177 31.6956 67.6923 33.6923 67.6923C35.689 67.6923 37.3077 66.177 37.3077 64.3077Z" fill="#0F2D95"/>
<path d="M37.3077 44C37.3077 42.1307 35.689 40.6154 33.6923 40.6154C31.6956 40.6154 30.0769 42.1307 30.0769 44C30.0769 45.8693 31.6956 47.3846 33.6923 47.3846C35.689 47.3846 37.3077 45.8693 37.3077 44Z" fill="#0F2D95"/>
<path d="M37.3077 23.6923C37.3077 21.823 35.689 20.3077 33.6923 20.3077C31.6956 20.3077 30.0769 21.823 30.0769 23.6923C30.0769 25.5616 31.6956 27.0769 33.6923 27.0769C35.689 27.0769 37.3077 25.5616 37.3077 23.6923Z" fill="#0F2D95"/>
<path d="M37.3077 3.38461C37.3077 1.51534 35.689 0 33.6923 0C31.6956 0 30.0769 1.51534 30.0769 3.38461C30.0769 5.25388 31.6956 6.76923 33.6923 6.76923C35.689 6.76923 37.3077 5.25388 37.3077 3.38461Z" fill="#0F2D95"/>
<path d="M59 84.6154C59 82.7461 57.3813 81.2308 55.3846 81.2308C53.3879 81.2308 51.7692 82.7461 51.7692 84.6154C51.7692 86.4847 53.3879 88 55.3846 88C57.3813 88 59 86.4847 59 84.6154Z" fill="#0F2D95"/>
<path d="M59 64.3077C59 62.4384 57.3813 60.9231 55.3846 60.9231C53.3879 60.9231 51.7692 62.4384 51.7692 64.3077C51.7692 66.177 53.3879 67.6923 55.3846 67.6923C57.3813 67.6923 59 66.177 59 64.3077Z" fill="#0F2D95"/>
<path d="M59 44C59 42.1307 57.3813 40.6154 55.3846 40.6154C53.3879 40.6154 51.7692 42.1307 51.7692 44C51.7692 45.8693 53.3879 47.3846 55.3846 47.3846C57.3813 47.3846 59 45.8693 59 44Z" fill="#0F2D95"/>
<path d="M59 23.6923C59 21.823 57.3813 20.3077 55.3846 20.3077C53.3879 20.3077 51.7692 21.823 51.7692 23.6923C51.7692 25.5616 53.3879 27.0769 55.3846 27.0769C57.3813 27.0769 59 25.5616 59 23.6923Z" fill="#0F2D95"/>
<path d="M59 3.38461C59 1.51534 57.3813 0 55.3846 0C53.3879 0 51.7692 1.51534 51.7692 3.38461C51.7692 5.25388 53.3879 6.76923 55.3846 6.76923C57.3813 6.76923 59 5.25388 59 3.38461Z" fill="#0F2D95"/>
</svg>

<svg width="59" height="88" fill="none" xmlns="http://www.w3.org/2000/svg"><path d="M-27.77 23.692c0-1.869-1.618-3.384-3.615-3.384-1.996 0-3.615 1.515-3.615 3.384 0 1.87 1.619 3.385 3.615 3.385 1.997 0 3.616-1.515 3.616-3.385ZM-27.77 3.385c0-1.87-1.618-3.385-3.615-3.385C-33.38 0-35 1.515-35 3.385c0 1.869 1.619 3.384 3.615 3.384 1.997 0 3.616-1.515 3.616-3.384ZM-6.077 64.308c0-1.87-1.619-3.385-3.615-3.385-1.997 0-3.616 1.515-3.616 3.385 0 1.869 1.619 3.384 3.616 3.384 1.996 0 3.615-1.515 3.615-3.384ZM-6.077 44c0-1.87-1.619-3.385-3.615-3.385-1.997 0-3.616 1.516-3.616 3.385 0 1.87 1.619 3.385 3.616 3.385 1.996 0 3.615-1.516 3.615-3.385ZM-6.077 23.692c0-1.869-1.619-3.384-3.615-3.384-1.997 0-3.616 1.515-3.616 3.384 0 1.87 1.619 3.385 3.616 3.385 1.996 0 3.615-1.515 3.615-3.385ZM-6.077 3.385C-6.077 1.515-7.696 0-9.692 0c-1.997 0-3.616 1.515-3.616 3.385 0 1.869 1.619 3.384 3.616 3.384 1.996 0 3.615-1.515 3.615-3.384ZM15.615 64.308c0-1.87-1.618-3.385-3.615-3.385s-3.615 1.515-3.615 3.385c0 1.869 1.618 3.384 3.615 3.384s3.615-1.515 3.615-3.384ZM15.615 44c0-1.87-1.618-3.385-3.615-3.385S8.385 42.131 8.385 44c0 1.87 1.618 3.385 3.615 3.385s3.615-1.516 3.615-3.385ZM15.615 23.692c0-1.869-1.618-3.384-3.615-3.384s-3.615 1.515-3.615 3.384c0 1.87 1.618 3.385 3.615 3.385s3.615-1.515 3.615-3.385ZM15.615 3.385C15.615 1.515 13.997 0 12 0S8.385 1.515 8.385 3.385c0 1.869 1.618 3.384 3.615 3.384s3.615-1.515 3.615-3.384ZM37.308 84.615c0-1.869-1.619-3.384-3.616-3.384-1.996 0-3.615 1.515-3.615 3.384 0 1.87 1.619 3.385 3.615 3.385 1.997 0 3.616-1.515 3.616-3.385ZM37.308 64.308c0-1.87-1.619-3.385-3.616-3.385-1.996 0-3.615 1.515-3.615 3.385 0 1.869 1.619 3.384 3.615 3.384 1.997 0 3.616-1.515 3.616-3.384ZM37.308 44c0-1.87-1.619-3.385-3.616-3.385-1.996 0-3.615 1.516-3.615 3.385 0 1.87 1.619 3.385 3.615 3.385 1.997 0 3.616-1.516 3.616-3.385ZM37.308 23.692c0-1.869-1.619-3.384-3.616-3.384-1.996 0-3.615 1.515-3.615 3.384 0 1.87 1.619 3.385 3.615 3.385 1.997 0 3.616-1.515 3.616-3.385ZM37.308 3.385c0-1.87-1.619-3.385-3.616-3.385-1.996 0-3.615 1.515-3.615 3.385 0 1.869 1.619 3.384 3.615 3.384 1.997 0 3.616-1.515 3.616-3.384ZM59 84.615c0-1.869-1.619-3.384-3.615-3.384-1.997 0-3.616 1.515-3.616 3.384 0 1.87 1.619 3.385 3.616 3.385C57.38 88 59 86.485 59 84.615ZM59 64.308c0-1.87-1.619-3.385-3.615-3.385-1.997 0-3.616 1.515-3.616 3.385 0 1.869 1.619 3.384 3.616 3.384 1.996 0 3.615-1.515 3.615-3.384ZM59 44c0-1.87-1.619-3.385-3.615-3.385-1.997 0-3.616 1.516-3.616 3.385 0 1.87 1.619 3.385 3.616 3.385C57.38 47.385 59 45.869 59 44ZM59 23.692c0-1.869-1.619-3.384-3.615-3.384-1.997 0-3.616 1.515-3.616 3.384 0 1.87 1.619 3.385 3.616 3.385 1.996 0 3.615-1.515 3.615-3.385ZM59 3.385C59 1.515 57.381 0 55.385 0c-1.997 0-3.616 1.515-3.616 3.385 0 1.869 1.619 3.384 3.616 3.384C57.38 6.77 59 5.254 59 3.385Z" fill="#0F2D95"/></svg>
